img/po-betonu.svg

<svg width="115" height="115" viewBox="0 0 115 115" fill="none" xmlns="http://www.w3.org/2000/svg">
<g filter="url(#filter0_i_1836_1327)">
<rect width="115" height="115" rx="15" fill="#F8F4F4"/>
</g>
<g filter="url(#filter1_d_1836_1327)">
<path d="M50.9099 31.8816L7.18153 50.8093L61.4924 83.2927L103.036 49.9281L50.9099 31.8816Z" fill="white"/>
<path d="M8.31946 57.85L7.18115 50.7559L61.4893 82.9378L61.5807 92.8834L8.31946 57.85Z" fill="#707070"/>
<path d="M103.035 49.875L101.322 58.0611L61.5803 92.8838L61.4889 82.9382L103.035 49.875Z" fill="#D9D9D9"/>
</g>
<g filter="url(#filter2_d_1836_1327)">
<path d="M66.4917 61.774C65.4739 62.1124 55.9892 66.8067 41.3432 65.2959C30.5064 64.1781 9.83371 51.395 9.83371 51.395L7.16857 49.3417L51.9136 30.6457L98.0007 46.8444L98.0112 47.992C94.3017 51.646 84.8321 57.9855 76.6721 58.7187C72.592 59.0853 67.5094 61.4355 66.4917 61.774Z" fill="#C1141E"/>
<path d="M27.2958 59.8065L7.1686 49.3418L7.1816 50.7554C14.6831 55.458 31.7297 65.9037 42.9278 67.0731C49.0008 67.7074 58.5195 66.7624 64.5935 63.6929C71.0049 60.4529 74.3077 59.7864 75.0668 59.7794C85.6624 59.682 94.5495 52.496 98.0153 48.4348L98.0007 46.8445C96.7675 47.9162 92.7482 50.7736 87.8926 53.6175C81.8231 57.1724 77.7465 56.2556 73.6904 57.5653C67.6063 59.5299 64.0041 63.1698 54.5242 64.5294C39.497 66.6846 32.627 61.9842 27.2958 59.8065Z" fill="#9B171F"/>
</g>
<path d="M14.512 48.1852L55.0276 33.5898" stroke="#E2AFAF"/>
<path d="M22.0711 49.9001L62.5867 35.3046" stroke="#E2AFAF"/>
<path d="M29.7718 52.3434L70.2873 37.748" stroke="#E2AFAF"/>
<path d="M38.2488 54.654L78.7644 40.0585" stroke="#E2AFAF"/>
<path d="M45.949 57.0993L86.4646 42.5038" stroke="#E2AFAF"/>
<path d="M43.9993 33.5403L85.2521 46.079" stroke="#E2AFAF"/>
<path d="M35.4397 36.0774L76.6925 48.6161" stroke="#E2AFAF"/>
<path d="M28.1004 39.6203L69.3532 52.159" stroke="#E2AFAF"/>
<path d="M19.9841 43.2981L61.237 55.8368" stroke="#E2AFAF"/>
<path fill-rule="evenodd" clip-rule="evenodd" d="M64.4251 85.5381C64.1404 85.2919 64.0564 84.8177 64.2467 84.3771C64.4726 83.8545 64.999 83.577 65.4225 83.7574C65.4752 83.7799 65.5238 83.8084 65.5681 83.8421L70.1706 86.6007L69.0679 88.3225L64.6198 85.6564C64.6148 85.6544 64.6097 85.6523 64.6047 85.6502C64.5409 85.623 64.4831 85.587 64.4317 85.5436L64.4244 85.5393L64.4251 85.5381Z" fill="#707070"/>
<path d="M70.3322 87.815C70.096 88.3617 69.5867 88.5715 69.1632 88.391C68.7396 88.2106 68.5624 87.7083 68.7985 87.1617C69.0347 86.615 69.5695 86.3181 69.993 86.4985C70.4165 86.679 70.5684 87.2684 70.3322 87.815Z" fill="#D9D9D9"/>
<path fill-rule="evenodd" clip-rule="evenodd" d="M71.8431 78.7822C71.5583 78.5361 71.4744 78.0619 71.6647 77.6213C71.8905 77.0986 72.4169 76.8212 72.8404 77.0016C72.8931 77.024 72.9418 77.0525 72.9861 77.0862L77.5886 79.8448L76.4858 81.5666L72.0378 78.9006C72.0327 78.8986 72.0277 78.8965 72.0227 78.8943C71.9589 78.8672 71.9011 78.8311 71.8496 78.7878L71.8423 78.7834L71.8431 78.7822Z" fill="#707070"/>
<path d="M77.7507 81.0592C77.5145 81.6058 77.0051 81.8156 76.5816 81.6352C76.1581 81.4548 75.9808 80.9525 76.217 80.4058C76.4532 79.8591 76.988 79.5623 77.4115 79.7427C77.835 79.9231 77.9869 80.5125 77.7507 81.0592Z" fill="#D9D9D9"/>
<path fill-rule="evenodd" clip-rule="evenodd" d="M78.5208 72.7783C78.2361 72.5322 78.1521 72.058 78.3424 71.6174C78.5683 71.0947 79.0947 70.8173 79.5182 70.9977C79.5709 71.0201 79.6195 71.0486 79.6638 71.0823L84.2663 73.8409L83.1636 75.5627L78.7155 72.8967C78.7105 72.8946 78.7054 72.8926 78.7004 72.8904C78.6366 72.8633 78.5788 72.8272 78.5274 72.7839L78.5201 72.7795L78.5208 72.7783Z" fill="#707070"/>
<path d="M84.4284 75.0553C84.1922 75.6019 83.6829 75.8117 83.2593 75.6313C82.8358 75.4509 82.6585 74.9486 82.8947 74.4019C83.1309 73.8552 83.6657 73.5584 84.0892 73.7388C84.5127 73.9192 84.6646 74.5086 84.4284 75.0553Z" fill="#D9D9D9"/>
<path fill-rule="evenodd" clip-rule="evenodd" d="M85.2054 67.5166C84.9207 67.2704 84.8367 66.7962 85.027 66.3557C85.2528 65.833 85.7792 65.5555 86.2027 65.736C86.2555 65.7584 86.3041 65.7869 86.3484 65.8206L90.9509 68.5792L89.8481 70.301L85.4001 67.6349C85.395 67.6329 85.39 67.6309 85.385 67.6287C85.3212 67.6015 85.2634 67.5655 85.2119 67.5222L85.2046 67.5178L85.2054 67.5166Z" fill="#707070"/>
<path d="M91.113 69.7935C90.8768 70.3402 90.3674 70.55 89.9439 70.3696C89.5204 70.1891 89.3431 69.6868 89.5793 69.1402C89.8155 68.5935 90.3503 68.2966 90.7738 68.4771C91.1973 68.6575 91.3492 69.2469 91.113 69.7935Z" fill="#D9D9D9"/>
<path fill-rule="evenodd" clip-rule="evenodd" d="M91.1419 62.2607C90.8572 62.0146 90.7732 61.5404 90.9635 61.0998C91.1894 60.5771 91.7158 60.2997 92.1393 60.4801C92.192 60.5025 92.2406 60.531 92.2849 60.5647L96.8874 63.3234L95.7847 65.0451L91.3366 62.3791C91.3316 62.3771 91.3265 62.375 91.3215 62.3729C91.2577 62.3457 91.1999 62.3097 91.1485 62.2663L91.1412 62.2619L91.1419 62.2607Z" fill="#707070"/>
<path d="M97.049 64.5377C96.8128 65.0843 96.3035 65.2941 95.88 65.1137C95.4564 64.9333 95.2792 64.431 95.5153 63.8843C95.7515 63.3377 96.2863 63.0408 96.7098 63.2212C97.1333 63.4016 97.2852 63.991 97.049 64.5377Z" fill="#D9D9D9"/>
<path fill-rule="evenodd" clip-rule="evenodd" d="M97.826 56.999C97.5413 56.7529 97.4573 56.2787 97.6476 55.8381C97.8734 55.3154 98.3998 55.038 98.8234 55.2184C98.8761 55.2408 98.9247 55.2693 98.969 55.303L103.571 58.0616L102.469 59.7834L98.0207 57.1174C98.0157 57.1154 98.0106 57.1133 98.0056 57.1111C97.9418 57.084 97.884 57.0479 97.8325 57.0046L97.8252 57.0002L97.826 56.999Z" fill="#707070"/>
<path d="M103.733 59.276C103.497 59.8226 102.988 60.0324 102.564 59.852C102.141 59.6716 101.963 59.1693 102.199 58.6226C102.436 58.0759 102.97 57.7791 103.394 57.9595C103.817 58.1399 103.969 58.7293 103.733 59.276Z" fill="#D9D9D9"/>
<defs>
<filter id="filter0_i_1836_1327" x="0" y="0" width="117" height="117" filterUnits="userSpaceOnUse" color-interpolation-filters="sRGB">
<feFlood flood-opacity="0" result="BackgroundImageFix"/>
<feBlend mode="normal" in="SourceGraphic" in2="BackgroundImageFix" result="shape"/>
<feColorMatrix in="SourceAlpha" type="matrix" values="0 0 0 0 0 0 0 0 0 0 0 0 0 0 0 0 0 0 127 0" result="hardAlpha"/>
<feOffset dx="2" dy="2"/>
<feGaussianBlur stdDeviation="3"/>
<feComposite in2="hardAlpha" operator="arithmetic" k2="-1" k3="1"/>
<feColorMatrix type="matrix" values="0 0 0 0 0 0 0 0 0 0 0 0 0 0 0 0 0 0 0.05 0"/>
<feBlend mode="normal" in2="shape" result="effect1_innerShadow_1836_1327"/>
</filter>
<filter id="filter1_d_1836_1327" x="4.18115" y="30.8809" width="101.855" height="67.002" filterUnits="userSpaceOnUse" color-interpolation-filters="sRGB">
<feFlood flood-opacity="0" result="BackgroundImageFix"/>
<feColorMatrix in="SourceAlpha" type="matrix" values="0 0 0 0 0 0 0 0 0 0 0 0 0 0 0 0 0 0 127 0" result="hardAlpha"/>
<feOffset dy="2"/>
<feGaussianBlur stdDeviation="1.5"/>
<feComposite in2="hardAlpha" operator="out"/>
<feColorMatrix type="matrix" values="0 0 0 0 0 0 0 0 0 0 0 0 0 0 0 0 0 0 0.25 0"/>
<feBlend mode="normal" in2="BackgroundImageFix" result="effect1_dropShadow_1836_1327"/>
<feBlend mode="normal" in="SourceGraphic" in2="effect1_dropShadow_1836_1327" result="shape"/>
</filter>
<filter id="filter2_d_1836_1327" x="4.16846" y="28.6465" width="96.8467" height="42.6133" filterUnits="userSpaceOnUse" color-interpolation-filters="sRGB">
<feFlood flood-opacity="0" result="BackgroundImageFix"/>
<feColorMatrix in="SourceAlpha" type="matrix" values="0 0 0 0 0 0 0 0 0 0 0 0 0 0 0 0 0 0 127 0" result="hardAlpha"/>
<feOffset dy="1"/>
<feGaussianBlur stdDeviation="1.5"/>
<feComposite in2="hardAlpha" operator="out"/>
<feColorMatrix type="matrix" values="0 0 0 0 0 0 0 0 0 0 0 0 0 0 0 0 0 0 0.25 0"/>
<feBlend mode="normal" in2="BackgroundImageFix" result="effect1_dropShadow_1836_1327"/>
<feBlend mode="normal" in="SourceGraphic" in2="effect1_dropShadow_1836_1327" result="shape"/>
</filter>
</defs>
</svg>

<svg width="115" height="115" fill="none" xmlns="http://www.w3.org/2000/svg"><g filter="url(#filter0_i_1836_1327)"><rect width="115" height="115" rx="15" fill="#F8F4F4"/></g><g filter="url(#filter1_d_1836_1327)"><path d="M50.91 31.882L7.182 50.809l54.31 32.484 41.544-33.365L50.91 31.882z" fill="#fff"/><path d="M8.32 57.85l-1.14-7.094 54.31 32.182.092 9.945L8.319 57.85z" fill="#707070"/><path d="M103.035 49.875l-1.713 8.186L61.58 92.884l-.091-9.946 41.546-33.063z" fill="#D9D9D9"/></g><g filter="url(#filter2_d_1836_1327)"><path d="M66.492 61.774c-1.018.338-10.503 5.033-25.149 3.522-10.837-1.118-31.51-13.901-31.51-13.901L7.17 49.342l44.745-18.696L98 46.844l.01 1.148c-3.71 3.654-13.179 9.994-21.339 10.727-4.08.366-9.163 2.716-10.18 3.055z" fill="#C1141E"/><path d="M27.296 59.806L7.169 49.343l.013 1.413c7.501 4.703 24.548 15.149 35.746 16.318 6.073.634 15.592-.31 21.666-3.38 6.41-3.24 9.714-3.907 10.473-3.914 10.595-.097 19.483-7.283 22.948-11.344l-.014-1.59c-1.234 1.071-5.253 3.929-10.108 6.773-6.07 3.554-10.147 2.638-14.203 3.947-6.084 1.965-9.686 5.605-19.166 6.964-15.027 2.156-21.897-2.545-27.228-4.722z" fill="#9B171F"/></g><path d="M14.512 48.185L55.028 33.59M22.071 49.9l40.516-14.595M29.772 52.343l40.515-14.595M38.249 54.654l40.515-14.596M45.949 57.1l40.516-14.596M44 33.54l41.251 12.54M35.44 36.077l41.252 12.54M28.1 39.62l41.253 12.54m-49.369-8.862l41.253 12.539" stroke="#E2AFAF"/><path fill-rule="evenodd" clip-rule="evenodd" d="M64.425 85.538c-.285-.246-.369-.72-.178-1.16.226-.523.752-.801 1.175-.62a.683.683 0 01.146.084l4.603 2.759-1.103 1.722-4.448-2.667a.682.682 0 01-.188-.113l-.008-.004h.001z" fill="#707070"/><path d="M70.332 87.815c-.236.547-.745.757-1.169.576-.423-.18-.6-.683-.364-1.23.236-.546.77-.843 1.194-.662.424.18.575.77.34 1.316z" fill="#D9D9D9"/><path fill-rule="evenodd" clip-rule="evenodd" d="M71.843 78.782c-.285-.246-.369-.72-.178-1.16.225-.523.752-.8 1.175-.62.053.022.102.05.146.084l4.603 2.759-1.103 1.722-4.448-2.666a.684.684 0 01-.188-.113l-.008-.005h.001z" fill="#707070"/><path d="M77.75 81.06c-.236.546-.745.756-1.168.575-.424-.18-.601-.683-.365-1.23.236-.546.771-.843 1.195-.662.423.18.575.77.339 1.316z" fill="#D9D9D9"/><path fill-rule="evenodd" clip-rule="evenodd" d="M78.52 72.778c-.284-.246-.368-.72-.178-1.16.226-.523.753-.8 1.176-.62.053.022.102.05.146.084l4.602 2.759-1.102 1.722-4.448-2.666-.016-.007a.682.682 0 01-.173-.106l-.007-.005z" fill="#707070"/><path d="M84.428 75.055c-.236.547-.745.757-1.169.576-.423-.18-.6-.682-.364-1.23.236-.546.77-.843 1.194-.662.424.18.576.77.34 1.316z" fill="#D9D9D9"/><path fill-rule="evenodd" clip-rule="evenodd" d="M85.205 67.517c-.284-.247-.368-.72-.178-1.161.226-.523.752-.8 1.176-.62a.62.62 0 01.145.085l4.603 2.758-1.103 1.722-4.448-2.666a.687.687 0 01-.188-.113l-.007-.004v-.001z" fill="#707070"/><path d="M91.113 69.793c-.236.547-.746.757-1.17.577-.423-.18-.6-.683-.364-1.23.237-.546.771-.843 1.195-.663.423.18.575.77.339 1.316z" fill="#D9D9D9"/><path fill-rule="evenodd" clip-rule="evenodd" d="M91.142 62.26c-.285-.245-.369-.72-.178-1.16.225-.523.752-.8 1.175-.62a.68.68 0 01.146.085l4.602 2.758-1.102 1.722-4.448-2.666a.682.682 0 01-.188-.113l-.008-.004v-.001z" fill="#707070"/><path d="M97.049 64.538c-.236.546-.746.756-1.169.576-.424-.18-.6-.683-.365-1.23.236-.546.771-.843 1.195-.663.423.18.575.77.339 1.317z" fill="#D9D9D9"/><path fill-rule="evenodd" clip-rule="evenodd" d="M97.826 56.999c-.285-.246-.369-.72-.178-1.16.225-.524.752-.801 1.175-.62.053.022.102.05.146.084l4.602 2.759-1.102 1.721-4.448-2.666a.684.684 0 01-.188-.113L97.825 57l.001-.001z" fill="#707070"/><path d="M103.733 59.276c-.236.547-.745.756-1.169.576-.423-.18-.601-.683-.365-1.23.237-.546.771-.843 1.195-.663.423.18.575.77.339 1.317z" fill="#D9D9D9"/><defs><filter id="filter0_i_1836_1327" x="0" y="0" width="117" height="117" filterUnits="userSpaceOnUse" color-interpolation-filters="sRGB"><feFlood flood-opacity="0" result="BackgroundImageFix"/><feBlend in="SourceGraphic" in2="BackgroundImageFix" result="shape"/><feColorMatrix in="SourceAlpha" values="0 0 0 0 0 0 0 0 0 0 0 0 0 0 0 0 0 0 127 0" result="hardAlpha"/><feOffset dx="2" dy="2"/><feGaussianBlur stdDeviation="3"/><feComposite in2="hardAlpha" operator="arithmetic" k2="-1" k3="1"/><feColorMatrix values="0 0 0 0 0 0 0 0 0 0 0 0 0 0 0 0 0 0 0.05 0"/><feBlend in2="shape" result="effect1_innerShadow_1836_1327"/></filter><filter id="filter1_d_1836_1327" x="4.181" y="30.881" width="101.855" height="67.002" filterUnits="userSpaceOnUse" color-interpolation-filters="sRGB"><feFlood flood-opacity="0" result="BackgroundImageFix"/><feColorMatrix in="SourceAlpha" values="0 0 0 0 0 0 0 0 0 0 0 0 0 0 0 0 0 0 127 0" result="hardAlpha"/><feOffset dy="2"/><feGaussianBlur stdDeviation="1.5"/><feComposite in2="hardAlpha" operator="out"/><feColorMatrix values="0 0 0 0 0 0 0 0 0 0 0 0 0 0 0 0 0 0 0.25 0"/><feBlend in2="BackgroundImageFix" result="effect1_dropShadow_1836_1327"/><feBlend in="SourceGraphic" in2="effect1_dropShadow_1836_1327" result="shape"/></filter><filter id="filter2_d_1836_1327" x="4.168" y="28.646" width="96.847" height="42.613" filterUnits="userSpaceOnUse" color-interpolation-filters="sRGB"><feFlood flood-opacity="0" result="BackgroundImageFix"/><feColorMatrix in="SourceAlpha" values="0 0 0 0 0 0 0 0 0 0 0 0 0 0 0 0 0 0 127 0" result="hardAlpha"/><feOffset dy="1"/><feGaussianBlur stdDeviation="1.5"/><feComposite in2="hardAlpha" operator="out"/><feColorMatrix values="0 0 0 0 0 0 0 0 0 0 0 0 0 0 0 0 0 0 0.25 0"/><feBlend in2="BackgroundImageFix" result="effect1_dropShadow_1836_1327"/><feBlend in="SourceGraphic" in2="effect1_dropShadow_1836_1327" result="shape"/></filter></defs></svg>
